X:1
T:Stern Old Bachelor
M:2/2
L:1/4
K:D
 f2| d d/2 d/2- d d|
M:3/2
 d d3 z d|
M:2/2
 d d c d/2 e/2-| e2 z g| g g/2 g/2- g e| c c/2 c/2- c B| A/2 A3/2 B c/2 d/2-|\
 d2 z f| d d/2 d/2- d d|
M:3/2
 d d d2 z d|
M:2/2
 d/2 d3/2 c d| e2 z g| g g g3/2 e/2| c c/2 c/2- c B| A A B c| d z f2|\
 d/2d/2 d d d| z2 d/2d/2 d| d d/2 c/2- c d/2 e/2-| e2 z g| g g/2 e/2- e e|\
 c c2 B| A A/2 B/2- B c| d2||

